_icons/SVG/424-ambipom-shiny.svg

<svg xmlns="http://www.w3.org/2000/svg" width="32" height="32"><path fill="#A366AD" d="M16 26.5c4.944 0 8.499-1.408 10.566-4.187 3.417-4.593 1.496-11.179 1.412-11.457l-.958.287c.02.063 1.858 6.392-1.26 10.577-1.867 2.509-5.152 3.78-9.76 3.78v1z"/><path fill="#B370B9" d="M16 26.5c-4.944 0-8.499-1.408-10.566-4.187-3.417-4.593-1.496-11.179-1.412-11.457l.958.287c-.02.063-1.858 6.392 1.26 10.577 1.867 2.509 5.152 3.78 9.76 3.78v1z"/><path fill="#945BA0" d="M19.289 25.432a.447.447 0 01.143-.095c.121-.198.274-.399.463-.588.669-.669 1.484-.941 1.818-.606.207.207.181.599-.027 1.025.753.092 1.314.428 1.314.832s-.561.74-1.313.831c.208.427.234.818.027 1.025-.335.335-1.149.063-1.818-.606a3.18 3.18 0 01-.464-.588.447.447 0 01-.143-.095c-.129-.129-.166-.331-.126-.568-.04-.236-.003-.437.126-.567z"/><path fill="#B370B9" d="M19 25s4 2 2 7h-1s1-3-2-4l1-3z"/><path fill="#A366AD" d="M12.675 25.457a.452.452 0 00-.141-.094 3.155 3.155 0 00-.459-.582c-.663-.663-1.469-.932-1.801-.6-.205.205-.179.593.027 1.016-.745.089-1.301.422-1.301.822s.556.733 1.301.823c-.206.423-.232.81-.027 1.016.332.332 1.138.063 1.801-.6.187-.187.339-.386.459-.582a.452.452 0 00.141-.094c.128-.128.165-.328.125-.562.04-.235.003-.435-.125-.563z"/><path fill="#B370B9" d="M16 20.429l4.524.945s3.751-3.5 5.251-2c1.277 1.277-3.245 3.279-4.617 3.846a.983.983 0 01-.762-.005L16 21.374v-.945z"/><path fill="#B370B9" d="M20 24.5c0-3.59-4-6.5-4-6.5v11c2.209 0 4-.91 4-4.5z"/><path fill="#C27BC6" d="M13 25s-4 2-2 7h1s-1-3 2-4l-1-3zm3-4.571l-4.524.945s-3.751-3.5-5.251-2c-1.277 1.277 3.245 3.279 4.617 3.846a.983.983 0 00.762-.005L16 21.374v-.945z"/><path fill="#C27BC6" d="M16 18s-4 2.91-4 6.5 1.791 4.5 4 4.5V18zm6-3.5c0-3.038-2.686-5.5-6-5.5v11c3.314 0 6-2.462 6-5.5z"/><ellipse transform="rotate(-80.921 23.477 13.98)" fill="#C27BC6" cx="23.477" cy="13.981" rx="4.032" ry="3.461"/><path fill="#C27BC6" d="M17.711 4.968C16.816 6.095 16 7.741 16 10h1c0-2.08.519-3.641 1.126-4.755.146-.269-.224-.517-.415-.277z"/><ellipse transform="rotate(-9.079 8.521 13.98)" fill="#D285D2" cx="8.523" cy="13.981" rx="3.461" ry="4.032"/><path fill="#D285D2" d="M14.289 4.968C15.184 6.095 16 7.741 16 10h-1c0-2.08-.519-3.641-1.126-4.755-.146-.269.224-.517.415-.277z"/><path fill="#D285D2" d="M16 9c-3.314 0-6 2.462-6 5.5s2.686 5.5 6 5.5V9z"/><path fill="#FCE8CC" d="M16 13c-1.582 0-3.017-.411-4.089-1.078-.57.731-.911 1.617-.911 2.578 0 2.485 2.239 4.5 5 4.5v-6z"/><path fill="#F5DEB9" d="M21 14.5c0-.961-.341-1.847-.911-2.578C19.017 12.589 17.582 13 16 13v6c2.761 0 5-2.015 5-4.5z"/><ellipse fill="#F5DEB9" cx="27.059" cy="3" rx="1.5" ry="3"/><circle fill="#B370B9" cx="29.5" cy="10" r="1.5"/><circle fill="#B370B9" cx="27.5" cy="10.5" r="1.5"/><circle fill="#B370B9" cx="25.5" cy="10" r="1.5"/><ellipse fill="#F5DEB9" cx="27" cy="6.5" rx="4" ry="3.5"/><path fill="#FF7898" d="M27 2a2.97 2.97 0 01-1.287-.3c.243-1.003.752-1.7 1.346-1.7.583 0 1.083.672 1.331 1.644-.417.22-.885.356-1.39.356z"/><ellipse transform="rotate(-68.376 30.22 3.844)" fill="#F5DEB9" cx="30.22" cy="3.844" rx="3" ry="1.5"/><ellipse transform="rotate(-21.624 23.781 3.844)" fill="#F5DEB9" cx="23.78" cy="3.844" rx="1.5" ry="3"/><path fill="#FF7898" d="M31.326 1.055c.5.198.724.9.658 1.787a3.963 3.963 0 01-2.425-.851c.573-.746 1.248-1.142 1.767-.936zm-8.652 0c.519-.206 1.194.191 1.767.937a3.965 3.965 0 01-2.425.851c-.066-.888.158-1.59.658-1.788z"/><ellipse fill="#FCE8CC" cx="4.941" cy="3" rx="1.5" ry="3"/><circle fill="#C27BC6" cx="2.5" cy="10" r="1.5"/><circle fill="#C27BC6" cx="4.5" cy="10.5" r="1.5"/><circle fill="#C27BC6" cx="6.5" cy="10" r="1.5"/><ellipse fill="#FCE8CC" cx="5" cy="6.5" rx="4" ry="3.5"/><path fill="#F3586F" d="M8.685 16c-.618 0-1.382-.635-1.589-1.698-.21-1.075.286-2.158 1.062-2.319a1 1 0 01.203-.021c.618 0 1.382.635 1.589 1.697.214 1.094-.273 2.156-1.062 2.32a1.007 1.007 0 01-.203.021z"/><path fill="#E85160" d="M23.315 16a1 1 0 01-.203-.021c-.788-.164-1.275-1.227-1.062-2.32.207-1.062.971-1.697 1.589-1.697a1 1 0 01.203.021c.775.161 1.271 1.244 1.062 2.318-.207 1.064-.97 1.699-1.589 1.699z"/><path fill="#D285D2" d="M12.878 32a1.17 1.17 0 00.122-.5c0-.828-.895-1.5-2-1.5s-2 .672-2 1.5c0 .176.048.343.122.5h3.756z"/><path fill="#C27BC6" d="M22.878 32a1.17 1.17 0 00.122-.5c0-.828-.895-1.5-2-1.5s-2 .672-2 1.5c0 .176.048.343.122.5h3.756z"/><path fill="#FF87A4" d="M5 2a2.97 2.97 0 001.287-.3C6.044.697 5.535 0 4.941 0 4.358 0 3.858.672 3.61 1.644 4.027 1.864 4.495 2 5 2z"/><ellipse transform="rotate(-21.624 1.78 3.844)" fill="#FCE8CC" cx="1.78" cy="3.844" rx="1.5" ry="3"/><ellipse transform="rotate(-68.376 8.22 3.844)" fill="#FCE8CC" cx="8.22" cy="3.844" rx="3" ry="1.5"/><path fill="#FF87A4" d="M.674 1.055c-.5.198-.724.9-.658 1.787a3.963 3.963 0 002.425-.851C1.868 1.245 1.193.849.674 1.055zm8.652 0c-.519-.206-1.194.19-1.767.936a3.965 3.965 0 002.425.851c.066-.887-.158-1.589-.658-1.787z"/><ellipse fill="#FFF" cx="13" cy="15" rx="1" ry="1.5"/><ellipse fill="#373F3F" cx="13" cy="15" rx=".5" ry="1"/><ellipse fill="#F7F7F7" cx="19" cy="15" rx="1" ry="1.5"/><ellipse fill="#2B3332" cx="19" cy="15" rx=".5" ry="1"/><path fill="#F5DEB9" d="M16 23c-1.105 0-2 1.791-2 4 0 .617.076 1.195.201 1.717.541.201 1.151.283 1.799.283v-6z"/><path fill="#EFD4A7" d="M17.799 28.717c.125-.522.201-1.1.201-1.717 0-2.209-.895-4-2-4v6c.648 0 1.258-.082 1.799-.283z"/><path fill="#FFF" d="M16 17c-.75 0-1.128-.337-1.151-.358a.5.5 0 00-.702.712c.066.066.68.646 1.853.646v-1z"/><path fill="#F7F7F7" d="M17.854 17.354a.497.497 0 00.003-.698.503.503 0 00-.704-.015c-.016.014-.393.359-1.153.359v1c1.173 0 1.787-.58 1.854-.646z"/></svg>

<?xml version="1.0" encoding="utf-8"?>
<!-- Generator: Adobe Illustrator 23.0.6, SVG Export Plug-In . SVG Version: 6.00 Build 0)  -->
<svg version="1.1" xmlns="http://www.w3.org/2000/svg" xmlns:xlink="http://www.w3.org/1999/xlink" x="0px" y="0px" width="32px"
	 height="32px" viewBox="0 0 32 32" enable-background="new 0 0 32 32" xml:space="preserve">
<g id="labels">
</g>
<g id="icons">
	<g>
		<path fill="#A366AD" d="M16,26.5c4.944,0,8.499-1.408,10.566-4.187c3.417-4.593,1.496-11.179,1.412-11.457l-0.958,0.287
			c0.02,0.063,1.858,6.392-1.26,10.577C23.893,24.229,20.608,25.5,16,25.5V26.5z"/>
		<path fill="#B370B9" d="M16,26.5c-4.944,0-8.499-1.408-10.566-4.187c-3.417-4.593-1.496-11.179-1.412-11.457l0.958,0.287
			c-0.02,0.063-1.858,6.392,1.26,10.577C8.107,24.229,11.392,25.5,16,25.5V26.5z"/>
		<path fill="#945BA0" d="M19.289,25.432c0.041-0.041,0.089-0.072,0.143-0.095c0.121-0.198,0.274-0.399,0.463-0.588
			c0.669-0.669,1.484-0.941,1.818-0.606c0.207,0.207,0.181,0.599-0.027,1.025C22.439,25.26,23,25.596,23,26s-0.561,0.74-1.313,0.831
			c0.208,0.427,0.234,0.818,0.027,1.025c-0.335,0.335-1.149,0.063-1.818-0.606c-0.189-0.189-0.343-0.39-0.464-0.588
			c-0.054-0.023-0.102-0.054-0.143-0.095c-0.129-0.129-0.166-0.331-0.126-0.568C19.123,25.763,19.16,25.562,19.289,25.432z"/>
		<path fill="#B370B9" d="M19,25c0,0,4,2,2,7h-1c0,0,1-3-2-4L19,25z"/>
		<path fill="#A366AD" d="M12.675,25.457c-0.04-0.04-0.088-0.071-0.141-0.094c-0.12-0.196-0.272-0.395-0.459-0.582
			c-0.663-0.663-1.469-0.932-1.801-0.6c-0.205,0.205-0.179,0.593,0.027,1.016C9.556,25.286,9,25.619,9,26.019
			s0.556,0.733,1.301,0.823c-0.206,0.423-0.232,0.81-0.027,1.016c0.332,0.332,1.138,0.063,1.801-0.6
			c0.187-0.187,0.339-0.386,0.459-0.582c0.053-0.023,0.101-0.054,0.141-0.094c0.128-0.128,0.165-0.328,0.125-0.562
			C12.84,25.785,12.803,25.585,12.675,25.457z"/>
		<path fill="#B370B9" d="M16,20.429l4.524,0.945c0,0,3.751-3.5,5.251-2c1.277,1.277-3.245,3.279-4.617,3.846
			c-0.246,0.102-0.517,0.098-0.762-0.005L16,21.374V20.429z"/>
		<path fill="#B370B9" d="M20,24.5c0-3.59-4-6.5-4-6.5v11C18.209,29,20,28.09,20,24.5z"/>
		<path fill="#C27BC6" d="M13,25c0,0-4,2-2,7h1c0,0-1-3,2-4L13,25z"/>
		<path fill="#C27BC6" d="M16,20.429l-4.524,0.945c0,0-3.751-3.5-5.251-2c-1.277,1.277,3.245,3.279,4.617,3.846
			c0.246,0.102,0.517,0.098,0.762-0.005L16,21.374V20.429z"/>
		<path fill="#C27BC6" d="M16,18c0,0-4,2.91-4,6.5s1.791,4.5,4,4.5V18z"/>
		<path fill="#C27BC6" d="M22,14.5c0-3.038-2.686-5.5-6-5.5v11C19.314,20,22,17.538,22,14.5z"/>
		
			<ellipse transform="matrix(0.1578 -0.9875 0.9875 0.1578 5.9674 34.9582)" fill="#C27BC6" cx="23.477" cy="13.981" rx="4.032" ry="3.461"/>
		<path fill="#C27BC6" d="M17.711,4.968C16.816,6.095,16,7.741,16,10h1c0-2.08,0.519-3.641,1.126-4.755
			C18.272,4.976,17.902,4.728,17.711,4.968z"/>
		
			<ellipse transform="matrix(0.9875 -0.1578 0.1578 0.9875 -2.0992 1.5198)" fill="#D285D2" cx="8.523" cy="13.981" rx="3.461" ry="4.032"/>
		<path fill="#D285D2" d="M14.289,4.968C15.184,6.095,16,7.741,16,10h-1c0-2.08-0.519-3.641-1.126-4.755
			C13.728,4.976,14.098,4.728,14.289,4.968z"/>
		<path fill="#D285D2" d="M16,9c-3.314,0-6,2.462-6,5.5c0,3.038,2.686,5.5,6,5.5V9z"/>
		<path fill="#FCE8CC" d="M16,13c-1.582,0-3.017-0.411-4.089-1.078C11.341,12.653,11,13.539,11,14.5c0,2.485,2.239,4.5,5,4.5V13z"/>
		<path fill="#F5DEB9" d="M21,14.5c0-0.961-0.341-1.847-0.911-2.578C19.017,12.589,17.582,13,16,13v6C18.761,19,21,16.985,21,14.5z"
			/>
		<ellipse fill="#F5DEB9" cx="27.059" cy="3" rx="1.5" ry="3"/>
		<circle fill="#B370B9" cx="29.5" cy="10" r="1.5"/>
		<circle fill="#B370B9" cx="27.5" cy="10.5" r="1.5"/>
		<circle fill="#B370B9" cx="25.5" cy="10" r="1.5"/>
		<ellipse fill="#F5DEB9" cx="27" cy="6.5" rx="4" ry="3.5"/>
		<path fill="#FF7898" d="M27,2c-0.463,0-0.896-0.113-1.287-0.3C25.956,0.697,26.465,0,27.059,0c0.583,0,1.083,0.672,1.331,1.644
			C27.973,1.864,27.505,2,27,2z"/>
		<g>
			
				<ellipse transform="matrix(0.3685 -0.9296 0.9296 0.3685 15.5103 30.5206)" fill="#F5DEB9" cx="30.22" cy="3.844" rx="3" ry="1.5"/>
			
				<ellipse transform="matrix(0.9296 -0.3685 0.3685 0.9296 0.2572 9.0339)" fill="#F5DEB9" cx="23.78" cy="3.844" rx="1.5" ry="3"/>
			<path fill="#FF7898" d="M31.326,1.055c0.5,0.198,0.724,0.9,0.658,1.787c-0.918-0.004-1.752-0.328-2.425-0.851
				C30.132,1.245,30.807,0.849,31.326,1.055z"/>
			<path fill="#FF7898" d="M22.674,1.055c0.519-0.206,1.194,0.191,1.767,0.937c-0.673,0.523-1.508,0.847-2.425,0.851
				C21.95,1.955,22.174,1.253,22.674,1.055z"/>
		</g>
		<ellipse fill="#FCE8CC" cx="4.941" cy="3" rx="1.5" ry="3"/>
		<circle fill="#C27BC6" cx="2.5" cy="10" r="1.5"/>
		<circle fill="#C27BC6" cx="4.5" cy="10.5" r="1.5"/>
		<circle fill="#C27BC6" cx="6.5" cy="10" r="1.5"/>
		<ellipse fill="#FCE8CC" cx="5" cy="6.5" rx="4" ry="3.5"/>
		<path fill="#F3586F" d="M8.685,16c-0.618,0-1.382-0.635-1.589-1.698c-0.21-1.075,0.286-2.158,1.062-2.319
			c0.067-0.014,0.136-0.021,0.203-0.021c0.618,0,1.382,0.635,1.589,1.697c0.214,1.094-0.273,2.156-1.062,2.32
			C8.82,15.993,8.752,16,8.685,16z"/>
		<path fill="#E85160" d="M23.315,16c-0.067,0-0.136-0.007-0.203-0.021c-0.788-0.164-1.275-1.227-1.062-2.32
			c0.207-1.062,0.971-1.697,1.589-1.697c0.067,0,0.136,0.007,0.203,0.021c0.775,0.161,1.271,1.244,1.062,2.318
			C24.697,15.365,23.934,16,23.315,16C23.315,16,23.315,16,23.315,16z"/>
		<path fill="#D285D2" d="M12.878,32C12.952,31.843,13,31.676,13,31.5c0-0.828-0.895-1.5-2-1.5s-2,0.672-2,1.5
			c0,0.176,0.048,0.343,0.122,0.5H12.878z"/>
		<path fill="#C27BC6" d="M22.878,32C22.952,31.843,23,31.676,23,31.5c0-0.828-0.895-1.5-2-1.5s-2,0.672-2,1.5
			c0,0.176,0.048,0.343,0.122,0.5H22.878z"/>
		<path fill="#FF87A4" d="M5,2c0.463,0,0.896-0.113,1.287-0.3C6.044,0.697,5.535,0,4.941,0C4.358,0,3.858,0.672,3.61,1.644
			C4.027,1.864,4.495,2,5,2z"/>
		<g>
			
				<ellipse transform="matrix(0.9296 -0.3685 0.3685 0.9296 -1.2912 0.9263)" fill="#FCE8CC" cx="1.78" cy="3.844" rx="1.5" ry="3"/>
			<ellipse transform="matrix(0.3685 -0.9296 0.9296 0.3685 1.6179 10.069)" fill="#FCE8CC" cx="8.22" cy="3.844" rx="3" ry="1.5"/>
			<path fill="#FF87A4" d="M0.674,1.055c-0.5,0.198-0.724,0.9-0.658,1.787c0.918-0.004,1.752-0.328,2.425-0.851
				C1.868,1.245,1.193,0.849,0.674,1.055z"/>
			<path fill="#FF87A4" d="M9.326,1.055C8.807,0.849,8.132,1.245,7.559,1.991c0.673,0.523,1.508,0.847,2.425,0.851
				C10.05,1.955,9.826,1.253,9.326,1.055z"/>
		</g>
		<ellipse fill="#FFFFFF" cx="13" cy="15" rx="1" ry="1.5"/>
		<ellipse fill="#373F3F" cx="13" cy="15" rx="0.5" ry="1"/>
		<ellipse fill="#F7F7F7" cx="19" cy="15" rx="1" ry="1.5"/>
		<ellipse fill="#2B3332" cx="19" cy="15" rx="0.5" ry="1"/>
		<path fill="#F5DEB9" d="M16,23c-1.105,0-2,1.791-2,4c0,0.617,0.076,1.195,0.201,1.717C14.742,28.918,15.352,29,16,29V23z"/>
		<path fill="#EFD4A7" d="M17.799,28.717C17.924,28.195,18,27.617,18,27c0-2.209-0.895-4-2-4v6
			C16.648,29,17.258,28.918,17.799,28.717z"/>
		<path fill="#FFFFFF" d="M16,17c-0.75,0-1.128-0.337-1.151-0.358c-0.194-0.19-0.508-0.189-0.702,0.005
			c-0.195,0.195-0.195,0.512,0,0.707C14.213,17.42,14.827,18,16,18V17z"/>
		<path fill="#F7F7F7" d="M17.854,17.354c0.193-0.193,0.192-0.502,0.003-0.698c-0.19-0.196-0.506-0.202-0.704-0.015
			C17.137,16.655,16.76,17,16,17v1C17.173,18,17.787,17.42,17.854,17.354z"/>
	</g>
</g>
</svg>
